X: 39339
T: Tam Lin
R: reel
M: 4/4
K: Dminor
A,2DA, FA,DA,|B,2DB, FB,DB,|C2EC GCEC|FEDC DC(A,G,)|
A,2DA, FA,DA,|B,2DB, FB,DB,|C2EC GCEC|1 FEDC D3 G,:|2|FEDC D3 (uA||
d^c)vdA FDF(uA|d^c)vdA FDFA|vcEEc EEdE|cEEc EEd(uA|
d^c)vdA FDF(A|d^c)d(A A3) A,|B,A,B,C DCDE|FEDC D3 (uA|
d^c)vdA FDFu(A|d^c)vdA FDFA|vcEEc EEdE|eEEd EEc(uA|
d^c)vdA FDF(uA|d^c)vd(A A3) A,|vB,A,B,C DCDE|(FE)DC D3 (vG,:|

